;generated by ffslicer 2.2.2 05/18/24 19:46:04
;machine_type: Creator 3
;right_extruder_material: PLA
;right_extruder_material_density: 1.24
;filament_diameter0: 1.75
;right_extruder_temperature: 200
;layer_height: 0.18
;perimeter_shells: 3
;top_solid_layers: 4
;bottom_solid_layers: 3
;fill_density: 80%
;fill_pattern: triangle
;base_print_speed: 60
;travel_speed: 80
;platform_temperature: 45
;right_extruder_temperature_raft0: 205
;right_extruder_temperature_reset: 
;left_extruder_temperature_reset: 
;start gcode
M118 X36.20 Y26.60 Z46.65 T0
M140 S45 T0
M104 S205 T0
M104 S0 T1
M107
G90
G1 Z50.000 F420
M7 T0
M6 T0
M651 S255
;layer_count: 255
M108 T0
G1 X-12.72 Y26.60 F4800
;preExtrude:0.20
G1 Z.200 F420
;structure:pre-extrude
G1 X-12.72 Y26.60 F4800
G1 X-25.25 Y26.60 E1.6170 F1200
G1 X-26.99 Y26.35 E1.8438
G1 X-28.69 Y25.58 E2.0847
G1 X-30.11 Y24.37 E2.3254
G1 X-31.13 Y22.81 E2.5660
G1 X-31.66 Y21.07 E2.8007
G1 X-31.74 Y20.06 E2.9314
G1 X-31.74 Y-20.11 E8.1154
G1 X-31.49 Y-21.85 E8.3422
G1 X-30.72 Y-23.55 E8.5830
G1 X-29.51 Y-24.97 E8.8238
G1 X-27.95 Y-25.99 E9.0643
G1 X-26.21 Y-26.52 E9.2991
G1 X-25.20 Y-26.60 E9.4298
G1 X19.97 Y-26.60 E15.2590
G1 X21.71 Y-26.35 E15.4858
;raft
;layer:0.40
;support-start
G1 E14.1858 F1800
G1 Z.400 F420
G1 X21.26 Y-24.80 F4800
G1 E15.4858 F1800
;structure:raft
G1 X21.26 Y-24.80 F4200
G1 X22.54 Y-24.22 E15.8485 F480
G1 X23.61 Y-23.30 E16.2127
G1 X24.39 Y-22.12 E16.5778
G1 X24.80 Y-20.77 E16.9420
G1 X24.86 Y-20.00 E17.1413
G1 X24.86 Y20.00 E27.4652
G1 X24.66 Y21.40 E27.8303
G1 X24.08 Y22.68 E28.1930
G1 X23.16 Y23.75 E28.5572
G1 X21.98 Y24.53 E28.9222
G1 X20.63 Y24.94 E29.2864
G1 X19.86 Y25.00 E29.4857
G1 X-25.14 Y25.00 E41.1002
G1 X-26.54 Y24.80 E41.4652
G1 X-27.82 Y24.22 E41.8279
G1 X-28.89 Y23.30 E42.1921
G1 X-29.67 Y22.12 E42.5572
G1 X-30.08 Y20.77 E42.9213
G1 X-30.14 Y20.00 E43.1207
G1 X-30.14 Y-20.00 E53.4446
G1 X-29.94 Y-21.40 E53.8096
G1 X-29.36 Y-22.68 E54.1723
G1 X-28.44 Y-23.75 E54.5365
G1 X-27.26 Y-24.53 E54.9016
G1 X-25.91 Y-24.94 E55.2658
G1 X-25.14 Y-25.00 E55.4651
G1 X19.86 Y-25.00 E67.0795
G1 X21.26 Y-24.80 E67.4445
G1 E66.1445 F1800
G1 X-25.08 Y-24.20 F4800
G1 E67.4445 F1800
G1 X-25.08 Y-24.20 F4200
G1 X-29.34 Y-19.94 E68.9995 F480
G1 X-29.34 Y-14.11 E70.5042
G1 X-19.25 Y-24.20 E74.1871
G1 X-13.42 Y-24.20 E75.6918
G1 X-29.34 Y-8.28 E81.5027
G1 X-29.34 Y-2.45 E83.0074
G1 X-7.59 Y-24.20 E90.9463
G1 X-1.76 Y-24.20 E92.4511
G1 X-29.34 Y3.38 E102.5179
G1 X-29.34 Y9.21 E104.0227
G1 X4.07 Y-24.20 E116.2175
G1 X9.90 Y-24.20 E117.7223
G1 X-29.34 Y15.04 E132.0451
G1 X-29.34 Y19.96 E133.3150
G1 X-29.29 Y20.63 E133.4884
G1 X-29.24 Y20.77 E133.5267
G1 X15.73 Y-24.20 E149.9411
G1 X19.80 Y-24.20 E150.9916
G1 X21.03 Y-24.02 E151.3124
G1 X21.27 Y-23.91 E151.3805
G1 X-26.56 Y23.91 E168.8370
G1 X-26.31 Y24.03 E168.9086
G1 X-25.08 Y24.20 E169.2290
G1 X-21.01 Y24.20 E170.2795
G1 X23.96 Y-20.78 E186.6957
G1 X24.01 Y-20.63 E186.7365
G1 X24.06 Y-19.96 E186.9099
G1 X24.06 Y-15.04 E188.1797
G1 X-15.18 Y24.20 E202.5026
G1 X-9.35 Y24.20 E204.0073
G1 X24.06 Y-9.21 E216.2022
G1 X24.06 Y-3.38 E217.7069
G1 X-3.52 Y24.20 E227.7738
G1 X2.30 Y24.20 E229.2759
G1 X24.06 Y2.44 E237.2185
G1 X24.06 Y8.27 E238.7232
G1 X8.13 Y24.20 E244.5378
G1 X13.96 Y24.20 E246.0425
G1 X24.06 Y14.10 E249.7290
G1 X24.06 Y19.93 E251.2338
G1 X19.79 Y24.20 E252.7923
;support-end
;layer:0.40
;support-start
M104 S200 T0
G1 E251.4923 F1800
G1 Z.800 F420
G1 X21.26 Y-24.80 F4800
G1 E252.7923 F1800
G1 X21.26 Y-24.80 F4800
G1 X22.54 Y-24.22 E252.8830 F1800
G1 X23.61 Y-23.30 E252.9741
G1 X24.39 Y-22.12 E253.0653
G1 X24.80 Y-20.77 E253.1564
G1 X24.86 Y-20.00 E253.2062
G1 X24.86 Y20.00 E255.7872
G1 X24.66 Y21.40 E255.8784
G1 X24.08 Y22.68 E255.9691
G1 X23.16 Y23.75 E256.0601
G1 X21.98 Y24.53 E256.1514
G1 X20.63 Y24.94 E256.2424
G1 X19.86 Y25.00 E256.2922
G1 X-25.14 Y25.00 E259.1959
G1 X-26.54 Y24.80 E259.2871
G1 X-27.82 Y24.22 E259.3778
G1 X-28.89 Y23.30 E259.4689
G1 X-29.67 Y22.12 E259.5601
G1 X-30.08 Y20.77 E259.6511
G1 X-30.14 Y20.00 E259.7010
G1 X-30.14 Y-20.00 E262.2820
G1 X-29.94 Y-21.40 E262.3732
G1 X-29.36 Y-22.68 E262.4639
G1 X-28.44 Y-23.75 E262.5549
G1 X-27.26 Y-24.53 E262.6462
G1 X-25.91 Y-24.94 E262.7373
G1 X-25.14 Y-25.00 E262.7871
G1 X19.86 Y-25.00 E265.6907
G1 X21.26 Y-24.80 E265.7820
G1 E264.4820
G1 X21.39 Y-24.52 F4800
G1 E265.7820 F1800
G1 X21.39 Y-24.52 F4800
G1 X24.35 Y-21.56 E266.0521 F1800
G1 X24.60 Y-20.73 E266.1080
G1 X24.66 Y-20.00 E266.1553
G1 X24.66 Y-19.35 E266.1972
G1 X19.21 Y-24.80 E266.6945
G1 X17.30 Y-24.80 E266.8178
G1 X24.66 Y-17.44 E267.4894
G1 X24.66 Y-15.54 E267.6120
G1 X15.40 Y-24.80 E268.4570
G1 X13.49 Y-24.80 E268.5802
G1 X24.66 Y-13.63 E269.5995
G1 X24.66 Y-11.73 E269.7221
G1 X11.59 Y-24.80 E270.9148
G1 X9.68 Y-24.80 E271.0380
G1 X24.66 Y-9.82 E272.4050
G1 X24.66 Y-7.92 E272.5275
G1 X7.78 Y-24.80 E274.0679
G1 X5.87 Y-24.80 E274.1911
G1 X24.66 Y-6.01 E275.9058
G1 X24.66 Y-4.11 E276.0284
G1 X3.97 Y-24.80 E277.9164
G1 X2.06 Y-24.80 E278.0396
G1 X24.66 Y-2.20 E280.1019
G1 X24.66 Y-.30 E280.2245
G1 X.16 Y-24.80 E282.4601
G1 X-1.75 Y-24.80 E282.5834
G1 X24.66 Y1.61 E284.9934
G1 X24.66 Y3.51 E285.1159
G1 X-3.65 Y-24.80 E287.6993
G1 X-5.56 Y-24.80 E287.8226
G1 X24.66 Y5.42 E290.5802
G1 X24.66 Y7.32 E290.7028
G1 X-7.46 Y-24.80 E293.6338
G1 X-9.36 Y-24.80 E293.7564
G1 X24.66 Y9.23 E296.8612
G1 X24.66 Y11.13 E296.9838
G1 X-11.27 Y-24.80 E300.2625
G1 X-13.17 Y-24.80 E300.3851
G1 X24.66 Y13.04 E303.8376
G1 X24.66 Y14.94 E303.9602
G1 X-15.08 Y-24.80 E307.5865
G1 X-16.98 Y-24.80 E307.7091
G1 X24.66 Y16.84 E311.5088
G1 X24.66 Y18.75 E311.6321
G1 X-18.89 Y-24.80 E315.6061
G1 X-20.79 Y-24.80 E315.7287
G1 X24.57 Y20.57 E319.8683
G1 X24.47 Y21.34 E319.9184
G1 X24.15 Y22.05 E319.9686
G1 X-22.70 Y-24.80 E324.2438
G1 X-24.60 Y-24.80 E324.3663
G1 X23.38 Y23.19 E328.7451
G1 X23.03 Y23.60 E328.7799
G1 X22.34 Y24.05 E328.8330
G1 X-26.32 Y-24.61 E333.2733
G1 X-27.18 Y-24.34 E333.3315
G1 X-27.65 Y-24.03 E333.3678
G1 X21.00 Y24.62 E337.8072
G1 X20.60 Y24.74 E337.8342
G1 X19.86 Y24.80 E337.8821
G1 X19.28 Y24.80 E337.9195
G1 X-28.68 Y-23.16 E342.2959
G1 X-29.19 Y-22.57 E342.3463
G1 X-29.44 Y-22.01 E342.3858
G1 X17.37 Y24.80 E346.6573
G1 X15.47 Y24.80 E346.7799
G1 X-29.86 Y-20.53 E350.9164
G1 X-29.94 Y-19.99 E350.9516
G1 X-29.94 Y-18.70 E351.0348
G1 X13.56 Y24.80 E355.0043
G1 X11.66 Y24.80 E355.1268
G1 X-29.94 Y-16.80 E358.9229
G1 X-29.94 Y-14.89 E359.0462
G1 X9.75 Y24.80 E362.6680
G1 X7.85 Y24.80 E362.7905
G1 X-29.94 Y-12.99 E366.2390
G1 X-29.94 Y-11.08 E366.3622
G1 X5.94 Y24.80 E369.6363
G1 X4.04 Y24.80 E369.7589
G1 X-29.94 Y-9.18 E372.8596
G1 X-29.94 Y-7.27 E372.9829
G1 X2.13 Y24.80 E375.9093
G1 X.23 Y24.80 E376.0319
G1 X-29.94 Y-5.37 E378.7850
G1 X-29.94 Y-3.46 E378.9082
G1 X-1.68 Y24.80 E381.4870
G1 X-3.58 Y24.80 E381.6096
G1 X-29.94 Y-1.56 E384.0150
G1 X-29.94 Y.35 E384.1383
G1 X-5.49 Y24.80 E386.3694
G1 X-7.39 Y24.80 E386.4920
G1 X-29.94 Y2.25 E388.5497
G1 X-29.94 Y4.16 E388.6729
G1 X-9.30 Y24.80 E390.5563
G1 X-11.20 Y24.80 E390.6789
G1 X-29.94 Y6.06 E392.3890
G1 X-29.94 Y7.97 E392.5123
G1 X-13.11 Y24.80 E394.0480
G1 X-15.01 Y24.80 E394.1706
G1 X-29.94 Y9.87 E395.5330
G1 X-29.94 Y11.78 E395.6562
G1 X-16.92 Y24.80 E396.8443
G1 X-18.82 Y24.80 E396.9669
G1 X-29.94 Y13.68 E397.9816
G1 X-29.94 Y15.59 E398.1049
G1 X-20.73 Y24.80 E398.9453
G1 X-22.63 Y24.80 E399.0679
G1 X-29.94 Y17.49 E399.7350
G1 X-29.94 Y19.40 E399.8582
G1 X-24.54 Y24.80 E400.3510
G1 X-25.13 Y24.80 E400.3891
G1 X-26.48 Y24.61 E400.4770
G1 X-26.76 Y24.48 E400.4969
G1 X-29.61 Y21.63 E400.7570
;support-end
;layer:0.25
;support-start
M106
G1 E399.4570
G1 Z1.050 F420
G1 X21.26 Y-24.80 F4800
G1 E400.7570 F1800
G1 X21.26 Y-24.80 F4800
G1 X22.54 Y-24.22 E400.8136 F3600
G1 X23.61 Y-23.30 E400.8706
G1 X24.39 Y-22.12 E400.9276
G1 X24.80 Y-20.77 E400.9845
G1 X24.86 Y-20.00 E401.0156
G1 X24.86 Y20.00 E402.6288
G1 X24.66 Y21.40 E402.6858
G1 X24.08 Y22.68 E402.7424
G1 X23.16 Y23.75 E402.7994
G1 X21.98 Y24.53 E402.8564
G1 X20.63 Y24.94 E402.9133
G1 X19.86 Y25.00 E402.9444
G1 X-25.14 Y25.00 E404.7592
G1 X-26.54 Y24.80 E404.8162
G1 X-27.82 Y24.22 E404.8729
G1 X-28.89 Y23.30 E404.9298
G1 X-29.67 Y22.12 E404.9868
G1 X-30.08 Y20.77 E405.0437
G1 X-30.14 Y20.00 E405.0749
G1 X-30.14 Y-20.00 E406.6880
G1 X-29.94 Y-21.40 E406.7450
G1 X-29.36 Y-22.68 E406.8017
G1 X-28.44 Y-23.75 E406.8586
G1 X-27.26 Y-24.53 E406.9156
G1 X-25.91 Y-24.94 E406.9725
G1 X-25.14 Y-25.00 E407.0037
G1 X19.86 Y-25.00 E408.8185
G1 X21.26 Y-24.80 E408.8755
G1 E407.5755 F1800
G1 X22.98 Y23.63 F4800
G1 E408.8755 F1800
G1 X22.98 Y23.63 F4800
G1 X23.12 Y23.49 E408.8835 F3600
G1 X23.91 Y22.57 E408.9324
G1 X24.29 Y21.73 E408.9696
G1 X21.58 Y24.44 E409.1241
G1 X20.72 Y24.70 E409.1604
G1 X24.53 Y20.89 E409.3776
G1 X24.63 Y20.20 E409.4058
G1 X20.04 Y24.78 E409.6672
G1 X19.43 Y24.80 E409.6919
G1 X24.66 Y19.57 E409.9902
G1 X24.66 Y18.97 E410.0144
G1 X18.83 Y24.80 E410.3468
G1 X18.24 Y24.80 E410.3706
G1 X24.66 Y18.38 E410.7368
G1 X24.66 Y17.78 E410.7610
G1 X17.64 Y24.80 E411.1614
G1 X17.04 Y24.80 E411.1855
G1 X24.66 Y17.18 E411.6201
G1 X24.66 Y16.58 E411.6443
G1 X16.45 Y24.80 E412.1129
G1 X15.85 Y24.80 E412.1370
G1 X24.66 Y15.99 E412.6395
G1 X24.66 Y15.39 E412.6637
G1 X15.25 Y24.80 E413.2004
G1 X14.65 Y24.80 E413.2246
G1 X24.66 Y14.79 E413.7955
G1 X24.66 Y14.20 E413.8193
G1 X14.06 Y24.80 E414.4238
G1 X13.46 Y24.80 E414.4480
G1 X24.66 Y13.60 E415.0867
G1 X24.66 Y13.00 E415.1109
G1 X12.86 Y24.80 E415.7839
G1 X12.27 Y24.80 E415.8077
G1 X24.66 Y12.41 E416.5143
G1 X24.66 Y11.81 E416.5385
G1 X11.67 Y24.80 E417.2793
G1 X11.07 Y24.80 E417.3035
G1 X24.66 Y11.21 E418.0786
G1 X24.66 Y10.62 E418.1024
G1 X10.48 Y24.80 E418.9111
G1 X9.88 Y24.80 E418.9353
G1 X24.66 Y10.02 E419.7782
G1 X24.66 Y9.42 E419.8024
G1 X9.28 Y24.80 E420.6796
G1 X8.69 Y24.80 E420.7033
G1 X24.66 Y8.83 E421.6142
G1 X24.66 Y8.23 E421.6383
G1 X8.09 Y24.80 E422.5834
G1 X7.49 Y24.80 E422.6076
G1 X24.66 Y7.63 E423.5868
G1 X24.66 Y7.04 E423.6106
G1 X6.90 Y24.80 E424.6235
G1 X6.30 Y24.80 E424.6477
G1 X24.66 Y6.44 E425.6948
G1 X24.66 Y5.84 E425.7190
G1 X5.70 Y24.80 E426.8003
G1 X5.11 Y24.80 E426.8241
G1 X24.66 Y5.25 E427.9391
G1 X24.66 Y4.65 E427.9633
G1 X4.51 Y24.80 E429.1125
G1 X3.91 Y24.80 E429.1367
G1 X24.66 Y4.05 E430.3201
G1 X24.66 Y3.46 E430.3438
G1 X3.32 Y24.80 E431.5609
G1 X2.72 Y24.80 E431.5851
G1 X24.66 Y2.86 E432.8364
G1 X24.66 Y2.26 E432.8606
G1 X2.12 Y24.80 E434.1461
G1 X1.53 Y24.80 E434.1698
G1 X24.66 Y1.67 E435.4890
G1 X24.66 Y1.07 E435.5132
G1 X.93 Y24.80 E436.8665
G1 X.33 Y24.80 E436.8907
G1 X24.66 Y.47 E438.2783
G1 X24.66 Y-.13 E438.3025
G1 X-.26 Y24.80 E439.7241
G1 X-.86 Y24.80 E439.7483
G1 X24.66 Y-.72 E441.2037
G1 X24.66 Y-1.32 E441.2279
G1 X-1.46 Y24.80 E442.7176
G1 X-2.06 Y24.80 E442.7418
G1 X24.66 Y-1.92 E444.2657
G1 X24.66 Y-2.51 E444.2895
G1 X-2.65 Y24.80 E445.8470
G1 X-3.25 Y24.80 E445.8712
G1 X24.66 Y-3.11 E447.4630
G1 X24.66 Y-3.71 E447.4872
G1 X-3.85 Y24.80 E449.1132
G1 X-4.44 Y24.80 E449.1370
G1 X24.66 Y-4.30 E450.7966
G1 X24.66 Y-4.90 E450.8208
G1 X-5.04 Y24.80 E452.5146
G1 X-5.64 Y24.80 E452.5388
G1 X24.66 Y-5.50 E454.2669
G1 X24.66 Y-6.09 E454.2907
G1 X-6.23 Y24.80 E456.0524
G1 X-6.83 Y24.80 E456.0766
G1 X24.66 Y-6.69 E457.8725
G1 X24.66 Y-7.29 E457.8967
G1 X-7.43 Y24.80 E459.7269
G1 X-8.02 Y24.80 E459.7506
G1 X24.66 Y-7.88 E461.6145
G1 X24.66 Y-8.48 E461.6386
G1 X-8.62 Y24.80 E463.5367
G1 X-9.22 Y24.80 E463.5609
G1 X24.66 Y-9.08 E465.4931
G1 X24.66 Y-9.67 E465.5169
G1 X-9.81 Y24.80 E467.4828
G1 X-10.41 Y24.80 E467.5070
G1 X24.66 Y-10.27 E469.5071
G1 X24.66 Y-10.87 E469.5313
G1 X-11.01 Y24.80 E471.5656
G1 X-11.61 Y24.80 E471.5898
G1 X24.66 Y-11.46 E473.6581
G1 X24.66 Y-12.06 E473.6823
G1 X-12.20 Y24.80 E475.7845
G1 X-12.80 Y24.80 E475.8087
G1 X24.66 Y-12.66 E477.9452
G1 X24.66 Y-13.25 E477.9689
G1 X-13.40 Y24.80 E480.1393
G1 X-13.99 Y24.80 E480.1631
G1 X24.66 Y-13.85 E482.3674
G1 X24.66 Y-14.45 E482.3916
G1 X-14.59 Y24.80 E484.6301
G1 X-15.19 Y24.80 E484.6543
G1 X24.66 Y-15.05 E486.9271
G1 X24.66 Y-15.64 E486.9508
G1 X-15.78 Y24.80 E489.2572
G1 X-16.38 Y24.80 E489.2814
G1 X24.66 Y-16.24 E491.6220
G1 X24.66 Y-16.83 E491.6458
G1 X-16.98 Y24.80 E494.0203
G1 X-17.57 Y24.80 E494.0441
G1 X24.66 Y-17.43 E496.4526
G1 X24.66 Y-18.03 E496.4767
G1 X-18.17 Y24.80 E498.9194
G1 X-18.77 Y24.80 E498.9436
G1 X24.66 Y-18.63 E501.4205
G1 X24.66 Y-19.22 E501.4443
G1 X-19.36 Y24.80 E503.9549
G1 X-19.96 Y24.80 E503.9791
G1 X24.66 Y-19.82 E506.5238
G1 X24.63 Y-20.39 E506.5469
G1 X-20.56 Y24.80 E509.1241
G1 X-21.15 Y24.80 E509.1479
G1 X24.55 Y-20.90 E511.7543
G1 X24.41 Y-21.36 E511.7737
G1 X-21.75 Y24.80 E514.4063
G1 X-22.35 Y24.80 E514.4305
G1 X24.27 Y-21.82 E517.0894
G1 X24.20 Y-22.04 E517.0987
G1 X24.08 Y-22.22 E517.1074
G1 X-22.94 Y24.80 E519.7890
G1 X-23.54 Y24.80 E519.8133
G1 X23.84 Y-22.58 E522.5154
G1 X23.61 Y-22.94 E522.5327
G1 X-24.14 Y24.80 E525.2556
G1 X-24.73 Y24.80 E525.2794
G1 X23.34 Y-23.27 E528.0210
G1 X23.02 Y-23.55 E528.0382
G1 X-25.31 Y24.77 E530.7942
G1 X-25.83 Y24.70 E530.8154
G1 X22.69 Y-23.82 E533.5826
G1 X22.36 Y-24.08 E533.5995
G1 X-26.35 Y24.62 E536.3773
G1 X-26.48 Y24.61 E536.3825
G1 X-26.79 Y24.47 E536.3962
G1 X21.95 Y-24.27 E539.1760
G1 X21.53 Y-24.45 E539.1944
G1 X-27.20 Y24.28 E541.9736
G1 X-27.61 Y24.10 E541.9917
G1 X21.10 Y-24.62 E544.7700
G1 X20.58 Y-24.69 E544.7912
G1 X-27.95 Y23.84 E547.5589
G1 X-28.28 Y23.57 E547.5761
G1 X20.06 Y-24.77 E550.3330
G1 X19.85 Y-24.80 E550.3416
G1 X19.49 Y-24.80 E550.3561
G1 X-28.60 Y23.29 E553.0988
G1 X-28.74 Y23.17 E553.1062
G1 X-28.87 Y22.97 E553.1158
G1 X18.90 Y-24.80 E555.8403
G1 X18.30 Y-24.80 E555.8645
G1 X-29.11 Y22.61 E558.5683
G1 X-29.34 Y22.25 E558.5856
G1 X17.70 Y-24.80 E561.2686
G1 X17.10 Y-24.80 E561.2928
G1 X-29.54 Y21.85 E563.9531
G1 X-29.68 Y21.39 E563.9724
G1 X16.51 Y-24.80 E566.6068
G1 X15.91 Y-24.80 E566.6309
G1 X-29.82 Y20.93 E569.2390
G1 X-29.88 Y20.74 E569.2471
G1 X-29.90 Y20.42 E569.2600
G1 X15.31 Y-24.80 E571.8387
G1 X14.72 Y-24.80 E571.8625
G1 X-29.94 Y19.86 E574.4096
G1 X-29.94 Y19.26 E574.4338
G1 X14.12 Y-24.80 E576.9466
G1 X13.52 Y-24.80 E576.9708
G1 X-29.94 Y18.66 E579.4494
G1 X-29.94 Y18.07 E579.4732
G1 X12.93 Y-24.80 E581.9182
G1 X12.33 Y-24.80 E581.9424
G1 X-29.94 Y17.47 E584.3532
G1 X-29.94 Y16.87 E584.3773
G1 X11.73 Y-24.80 E586.7539
G1 X11.14 Y-24.80 E586.7777
G1 X-29.94 Y16.28 E589.1206
G1 X-29.94 Y15.68 E589.1448
G1 X10.54 Y-24.80 E591.4535
G1 X9.94 Y-24.80 E591.4776
G1 X-29.94 Y15.08 E593.7521
G1 X-29.94 Y14.49 E593.7759
G1 X9.35 Y-24.80 E596.0167
G1 X8.75 Y-24.80 E596.0409
G1 X-29.94 Y13.89 E598.2475
G1 X-29.94 Y13.29 E598.2716
G1 X8.15 Y-24.80 E600.4440
G1 X7.56 Y-24.80 E600.4679
G1 X-29.94 Y12.70 E602.6065
G1 X-29.94 Y12.10 E602.6307
G1 X6.96 Y-24.80 E604.7352
G1 X6.36 Y-24.80 E604.7594
G1 X-29.94 Y11.50 E606.8297
G1 X-29.94 Y10.91 E606.8535
G1 X5.77 Y-24.80 E608.8901
G1 X5.17 Y-24.80 E608.9143
G1 X-29.94 Y10.31 E610.9167
G1 X-29.94 Y9.71 E610.9408
G1 X4.57 Y-24.80 E612.9090
G1 X3.98 Y-24.80 E612.9328
G1 X-29.94 Y9.12 E614.8674
G1 X-29.94 Y8.52 E614.8916
G1 X3.38 Y-24.80 E616.7919
G1 X2.78 Y-24.80 E616.8161
G1 X-29.94 Y7.92 E618.6822
G1 X-29.94 Y7.32 E618.7064
G1 X2.18 Y-24.80 E620.5383
G1 X1.59 Y-24.80 E620.5621
G1 X-29.94 Y6.73 E622.3603
G1 X-29.94 Y6.13 E622.3845
G1 X.99 Y-24.80 E624.1485
G1 X.39 Y-24.80 E624.1727
G1 X-29.94 Y5.53 E625.9026
G1 X-29.94 Y4.94 E625.9264
G1 X-.20 Y-24.80 E627.6225
G1 X-.80 Y-24.80 E627.6466
G1 X-29.94 Y4.34 E629.3086
G1 X-29.94 Y3.74 E629.3328
G1 X-1.40 Y-24.80 E630.9605
G1 X-1.99 Y-24.80 E630.9843
G1 X-29.94 Y3.15 E632.5783
G1 X-29.94 Y2.55 E632.6025
G1 X-2.59 Y-24.80 E634.1623
G1 X-3.19 Y-24.80 E634.1865
G1 X-29.94 Y1.95 E635.7121
G1 X-29.94 Y1.36 E635.7360
G1 X-3.78 Y-24.80 E637.2279
G1 X-4.38 Y-24.80 E637.2521
G1 X-29.94 Y.76 E638.7099
G1 X-29.94 Y.16 E638.7340
G1 X-4.98 Y-24.80 E640.1575
G1 X-5.57 Y-24.80 E640.1814
G1 X-29.94 Y-.43 E641.5712
G1 X-29.94 Y-1.03 E641.5954
G1 X-6.17 Y-24.80 E642.9511
G1 X-6.77 Y-24.80 E642.9752
G1 X-29.94 Y-1.63 E644.2967
G1 X-29.94 Y-2.22 E644.3205
G1 X-7.36 Y-24.80 E645.6084
G1 X-7.96 Y-24.80 E645.6325
G1 X-29.94 Y-2.82 E646.8861
G1 X-29.94 Y-3.42 E646.9103
